X:1
T:Lakmé.
T:Prélude
T:LAKMÉ
T:PRÉLUDE.
T:0PÉRA EN TROIS ACTES
T:Musique de LÉO DELIBES 
T:Paroles de MM. GONDINET et PH. GILLE 
T:PD
T:PD
T:PD
T:PD
T:PD
T:PD
C:LEO DELIBES
Z:GONDINET et PH.GILLE
Z:PD
%%score { ( 1 4 5 ) | ( 2 3 ) }
L:1/8
Q:1/4=69
M:3/4
K:E
V:1 treble nm="PIANO."
V:4 treble 
V:5 treble 
V:2 bass 
V:3 bass 
V:1
!f!"^Maestoso. ()" E7/4=D/4 E z/ ([^A^a]/4[Bb]/4) [Bb]E | F7/4E/4 F z/ [^A^a]/4[Bb]/4 [Bb] z | %2
[K:E] =G7/4F/4 G z/ ([^A^a]/4[Bb]/4) [Bb]E | F7/4E/4 F z!ff!!8va(! !>![bd'f'b'] z!8va)! | %4
 =G7/4F/4 G z/ ([cc']/4[=d=d']/4) [dd']G |[K:E] A7/4=G/4 A z/ [cc']/4[=d=d']/4 [dd'] z | %6
 _B7/4A/4 B z/ ([cc']/4[=d=d']/4) [dd']=G | A7/4=G/4 A z!ff!!8va(! !>![=d'f'a'=d''] z!8va)! | %8
!mf![Q:1/4=104]"^Plus animé." B/>c/!>!^d- d(3(c/d/f/ (3e/c/B/A) | %9
 B/>c/!>!d- d(3(c/d/f/ (3e/c/B/A) | %10
!<(! (3(B/c/d/) (3(B/c/d/) (3(c/d/(e/) (3c/d/e/) (3(d/e/f/) (3(d/e/f/) | %11
 (6:4:6(g/a/b/c'/d'/!<)!e'/)!>(! (6:4:6(d'/c'/b/a/g/f/) (6:4:6(e/g/f/e/d/!>)!c/) | %12
 B/>c/!>!d- d(3(c/d/f/ (3e/c/B/A) | B/>c/!>!d- d(3(c/d/f/ (3e/c/B/A) | %14
!<(! (3(B/c/(d/) (3B/c/(d/) (3c/.d/(e/) (3c/d/e/) (3(d/e/f/)!<)! (3(d/.e/f/) || %15
[K:Ab][M:4/4]!f![Q:1/4=80]"^Andante"[Q:1/4=80] ^g/^g'/4g/4"_dim." g'/4g/4g'/4g/4 g'/4g/4g'/4g/4g'/4g/4g'/4g/4 !///-!g'2 ^g2 || %16
!pp! !////-!a'2 a2 !///-!a'2 a2 | !////-!a'2 a2 !///-!a'2 a2 | !////-!a'2 a2 !///-!a'2 a2 | %19
 (!////-!a'2 a2) (!///-!a'2 a2) | (!////-!a'2 a2) (!///-!a'2 a2) | (!////-!a'2 a2) (!///-!a'2 a2) | %22
 (!////-!a'2 a2) (!///-!a'2 a2) | (!////-!a'2 a2) (!///-!a'2 a2) | (!////-!a'2 a2) (!///-!a'2 a2) | %25
 (!////-!a'2 a2) (!///-!a'2 a2) | a'8- | [g=c'e'a']2 z2 !fermata!z4 || %28
[K:Db][M:2/2]!mf![Q:1/4=114]"^Moderato"[Q:1/2=72] !arpeggio!F4 x4 | (3(!>!F2 !>!G2 !>!A2) (FDEF) | %30
!<(! (A,2 D2 E2!<)! F2) | B6- B z | !arpeggio!G4 (G2 F2) | (3(!>!G2 !>!A2 B2) (GEFG) | %34
 (C2 E2 D2 F2) | (=G6 A) z | !arpeggio!F4 (F2 E2) | (3(!>!F2 !>!G2 !>!A2) (FDEF) | %38
!<(! (A,2 D2 F2!<)! A2) |!sfz!!>(! (c8!>)! | =A4) (A2 =G2) | (3=A2- =G2 A2 F/ z/!<(! F _A!<)!_G | %42
 (F4 D2 B,2) | (E4 D2) z2 | [ee']4 [ee']2 [ee']2 | %45
 (3([=e=e']2 [^f^f']2 [^g^g']2) ([ee'][=B=b][ee'][^d^d']) | %46
!<(! ([^c^c']2 [=e=e']2!<)! [=a=a']3 [^g^g']) | ([^g^g']4 [^f^f']2) z2 | %48
"^*" ([^g^g']2 [^d^d']2 [dd']2 [dd']2) | (3([=e=e']2 [^f^f']2 [^g^g']2) [ee']2- [ee'] z | %50
 ([_a_a']2 [_e_e']4 [Aa]) z |!<(! ([_a_a']2 [=e=e']4!<)! [Aa]) z |"^espressivo."!p! F4 (F2 E2) | %53
 (3(!>!F2 !>!G2 !>!A2) (FDEF) |!<(! (A,2 D2 F2!<)! A2) | %55
!sfz!!>(! (!arpeggio![=E-=Gc-]4!>)! [EGc]2) z2 |!f! !arpeggio![=Ac=a]4 ([Aa]2 [=G=g]2) | c4 x4 | %58
"_cresc." [Ff] (!>![dd']2 !>![cc']2 [_c_c'][Bb][__B__b]) | %59
 [Aa] ([ff']2!<(! [=e=e']2 [_e_e'][=d=d']!<)![_d_d']) | %60
!ff! [cgc']!8va(! (!>![bb']2 !>![=a=a']2 !>![_a_a']!>![=g=g']!>![_g_g']!8va)! | %61
 !>![ee']"^poca allarg."[cc']!>![Bb]!>![=A=a] !>![_A_a]!>![=G=g]!>![_G_g]!>![Ee]) || %62
[K:E][M:4/4]"^Tempo. (sans lenteur)"!sfz! !///-!_d2"_dim." _D2 !///-!^c2 ^C2 | %63
!p! !///-!c2 C2 !///-!c2 C2 | !///-!c2 C2!f! [cc']/!>(! c/4C/4c/C/ !///-!c C!>)! | %65
!p! !///-!c2 C2 !///-!c2 C2 | !///-!c2 C2!f! [cc']/!>(! c/4C/4c/C/ !///-!c C!>)! | %67
 (^D F2- F/^E/) (F2 B2) | =A>^^F G4 c2 |"_cresc." (B>G) (A4 d2) | c>^A B2 (=e>^^c) d2 | %71
!<(! f>^^d ^e2 (g>^e) f2!<)! |!ff! [=d=a=d'] [dad']2 [dad']2 [dad']2 [dad'] | %73
 [ac'e'b'] !>![ac'e'a']2 !>![ac'e'a']2 !>![ac'e'a']2 [ac'e'a'] || %74
"^Le double plus lent."!fff! [=cfa=c']2 z2 z2!pp! .[FA] z | .[=D=G=d] z z2 z2 .[DG] z | %76
 .[^CF^c] z z2 z4 | .[C^E] z z2 !fermata!z4 |] %78
V:2
 z2 z z/ (^A,/4B,/4) B, z | z2 z z/ (^A,/4B,/4) B, z |[K:E] z2 z z/ (^A,/4B,/4) B, z | %3
 [F,,F,]7/4[E,,E,]/4 [F,,F,] z [B,,,D,,F,,B,,] z | z2 z z/ (C/4=D/4) D z | %5
[K:E] z2 z z/ (C/4=D/4) D z | z2 z z/ (C/4=D/4) D z | %7
 [A,,A,]7/4[=G,,=G,]/4 [A,,A,] z !>![=D,,F,,A,,=D,] z | [A,B,^DF] [A,B,DF]2 [A,B,DF] [A,CE][A,CE] | %9
 !>![A,B,DF] !>![A,B,DF]2 [A,B,DF] [A,CE][A,CE] | A,F G,E F,D | E,C F,D G,E | %12
 !>![A,B,DF] !>![A,B,DF]2 [A,B,DF] [A,CE][A,CE] | !>![A,B,DG] !>![A,B,DF]2 [A,B,DF] [A,CE][A,CE] | %14
 [A,DF][A,DF][A,CE][A,CE][A,CD][A,CD] ||[K:Ab][M:4/4] ([^G,-^B,-^D]2 [G,B,D]) z z4 || z8 | %17
!mf!"^(Flûte)" F !>!A2 A/G/ A2 c2 | B>G !>!A2[K:bass]{/F,,,} F,, z[K:treble] z2 | %19
 F !>!A2 A/G/ A2 c2 | B>G !>!A2[K:bass]{/F,,,} F,, z[K:treble] z2 | %21
 [A,A] [_C_c]2- [Cc]/[B,B]/ [Cc]2 [Ee]2 | [=D=d]>[B,B] [_C_c]2[K:bass]{/F,,,} F,, z z2 | %23
 [A,A] [_C_c]2- [Cc]/[B,B]/ [Cc]2 [Ee]2 | [=D=d]>[B,B] [_C_c]2 [Ee]>[B,B] [Cc]2 | %25
 [=D=d]>[B,B] [_C_c]2 [_F_f]>[B,B] [Cc]2 |!pp! (!///-!A,,,2 A,,2) (!///-!A,,,2 A,,2) | %27
 A,,,2 z2 !fermata!z4 ||[K:Db][M:2/2] !arpeggio![D,,A,,D,]2- [D,,A,,D,] z z4 | z8 | %30
 !arpeggio!.[D,,A,,D,F,]2 z2 z4 | z4 !arpeggio![B,,,B,,]2 z2 | %32
 !arpeggio![E,,B,,-E,]2 [B,,E,] z z4 | z8 | z2 !arpeggio![G,,C,E,A,]2 z2 !arpeggio![F,,D,A,]2 | %35
 z2 [_F,=G,]2 [E,_G,]2 z2 | !arpeggio![D,,A,,D,]2- [D,,A,,D,] z z4 | z8 | %38
 !arpeggio![D,,A,,D,F,]2 z2 z4 | z4 !arpeggio![C,,C,]2 z2 | !arpeggio![F,,C,F,]2 z2 z4 | %41
 z4 z2 [B,,B,]2 | [A,,A,]2 z2 z4 | z2 [A,,,A,,]2 [D,,D,]2 z2 |!mf! A,,!<(! (E,!<)!A,C ECA,E,) | %45
 ^G,,!<(! (=E,!<)!^G,=B, =EB,G,E,) | =A,, (=E,=A,^C) ^C, (=EA,E,) | =B,, (B,,=A,=B, ^DB,A,B,) | %48
 z (^G,^B,G, B,G,B,.G,) |!ped! z (^G,=DG, DG,DG,)!ped-up! | %50
!ped! z"^cresc." (_A,_EA, EA,EA,)!ped-up! |!ped! z (_A,=EA, EA,EA,)!ped-up! | %52
!p!!ped! D, (D,A,D) (A,D [G,B,]D)!ped-up! | z (A,DA,) A,2 z2 | (D,,A,,D,F, A,DF) z | %55
 C, (=G,B,C =ECB,C) | F, F,3- F,4- | F,4 F, z [B,_D]2 | %58
!ped! [A,,A,] ([F,A,]/D/ [F,A,]/D/[F,A,]/D/) !///-![F,A,]2 D2!ped-up! | %59
!ped! [A,,A,] ([A,D]/F/ [A,D]/F/[A,D]/F/) !///-![A,D]2 F2!ped-up! | !arpeggio![A,,E,G,C]2 z2 z4 | %61
 z8 ||[K:E][M:4/4] z8 | [C,,C,] [E,,E,]2- [E,,E,]/[D,,D,]/ [E,,E,]2 [G,,G,]2 | %64
 [^^F,,^^F,]3/2 [D,,D,]/ [E,,E,]2 [C,,C,]2- [C,,C,] z | %65
 [=D,,=D,] [F,,F,]2- [F,,F,]/[=E,,=E,]/ [F,,F,]2 [A,,A,]2 | %66
 [G,,G,]3/2 [E,,E,]/ [F,,F,]2 [C,,C,]2- [C,,C,] z | (!///-!C,,2 C,2) (!///-!C,,2 =D,2) | %68
 (!///-!C,,2 C,2) (!///-!C,2 E,2) | (!///-!C,2 ^E,2) (!///-!C,2 F,2) | %70
 (!///-!C, ^^F,) (!///-!C, G,) (!///-!C, A,) (!///-!C, ^A,) | %71
 (!///-!C, B,) (!///-!C, ^B,) (!///-!C, C) (!///-!C, =D) | %72
!ped! [F,,F,] [F,=A,=D]2 [F,A,D]2 [F,A,D]2 [F,A,D]!ped-up! | %73
!ped! [E,A,CE] !>![E,A,CE]2 !>![E,A,CE]2 !>![E,A,CE]2 [E,A,CE]!ped-up! || %74
 !arpeggio!!>![^D,A,=CF]2 z2 z2 .[_E,C] z | [=D,B,] z .=G,, z z2 .[B,,=G,] z | %76
 .[^C,A,] z .C,, z z4 | .[C,^G,] z"_Enchaînez." .C,, z !fermata!z4 |] %78
V:3
 [E,,E,]7/4[=D,,=D,]/4 [E,,E,]3 [E,,E,] | [F,,F,]7/4[E,,E,]/4 [F,,F,]4 | %2
[K:E] [=G,,=G,]7/4[F,,F,]/4 [G,,G,]3 [E,,E,] | x6 | [=G,,=G,]7/4[F,,F,]/4 [G,,G,]3 [G,,G,] | %5
[K:E] [A,,A,]7/4[=G,,=G,]/4 [A,,A,]4 | [_B,,_B,]7/4[A,,A,]/4 [B,,B,]3 [=G,,=G,] | x6 | x6 | x6 | %10
 x6 | x6 | x6 | x6 | x6 ||[K:Ab][M:4/4] x8 || x8 | x8 | x4[K:bass] x2[K:treble] x2 | x8 | %20
 x4[K:bass] x2[K:treble] x2 | x8 | x4[K:bass] x4 | x8 | x8 | x8 | x8 | x8 ||[K:Db][M:2/2] x8 | x8 | %30
 x8 | x8 | x8 | x8 | x8 | x8 | x8 | x8 | x8 | x8 | x8 | x8 | x8 | x8 | x8 | x8 | x8 | x8 | ^B,,8 | %49
 =B,,8 | =C,8 | C,8 | x8 | D,4- D,2 z2 | x8 | x8 | x (F,CF) (CF B,F) | (3C2- .B,2 C2 =A, x3 | x8 | %59
 x8 | x8 | x8 ||[K:E][M:4/4] x8 | x8 | x8 | x8 | x8 | x8 | x8 | x8 | x8 | x8 | x8 | x8 || x8 | x8 | %76
 x8 | x8 |] %78
V:4
 x6 | x6 |[K:E] x6 | x4!8va(! x2!8va)! | x6 |[K:E] x6 | x6 | x4!8va(! x2!8va)! | x6 | x6 | x6 | %11
 x6 | x6 | x6 | x6 ||[K:Ab][M:4/4] x8 || x8 | x8 | x8 | x8 | x8 | x8 | x8 | x8 | x8 | x8 | %26
 [=c'e']8- | x8 ||[K:Db][M:2/2] !arpeggio![F,A,-D-]2 [A,D] z (F2 E2) | x8 | x8 | %31
 z4 !arpeggio![A,=DF]2 z2 | !arpeggio![G,B,E]2- [G,B,E] z x4 | x8 | x8 | z2!>(! [B,D]2!>)! C2 z2 | %36
 !arpeggio![F,A,D]2- [F,A,D] z x4 | x8 | x8 | z4 !arpeggio![B,=E=G]2 z2 | %40
 !arpeggio![=G,CF]2 z2 z4 | z4 z2 _D2 | D2 z2 z4 | z2 [_G,C]2 [F,A,]2 x2 | x8 | x8 | x8 | x8 | x8 | %49
 x8 | x8 | x8 | x8 | x8 | x8 | x8 | x4 c4 | (3[=A=a-]2 [=G=g]2 [Aa]2 [Ff]/ z/ ([Ff] [_A_a][_G_g]) | %58
 x8 | x8 | x!8va(! x7!8va)! | x8 ||[K:E][M:4/4] x8 | x8 | x8 | x8 | x8 | !///!c'4 !///!c'4 | %68
 !///!c'4 !///!c'4 | !///!c'4 !///!c'4 | (E2 ^E2) (F2 ^^F2) | (G2 =A2) (^A2 =B2) | x8 | x8 || x8 | %75
 x8 | x8 | x8 |] %78
V:5
 x6 | x6 |[K:E] x6 | x4!8va(! x2!8va)! | x6 |[K:E] x6 | x6 | x4!8va(! x2!8va)! | x6 | x6 | x6 | %11
 x6 | x6 | x6 | x6 ||[K:Ab][M:4/4] x8 || x8 | x8 | x8 | x8 | x8 | x8 | x8 | x8 | x8 | x8 | _g8- | %27
 x8 ||[K:Db][M:2/2] x8 | x8 | x8 | x8 | x8 | x8 | x8 | x8 | x8 | x8 | x8 | x8 | x8 | x8 | x8 | x8 | %44
 x8 | x8 | x8 | x8 | x8 | x8 | x8 | x8 | x8 | x8 | x8 | x8 | x8 | x8 | x8 | x8 | x!8va(! x7!8va)! | %61
 x8 ||[K:E][M:4/4] x8 | x8 | x8 | x8 | x8 | x8 | z4 C4 | (=D4 ^D4) | !///!c'4 !///!c'4 | %71
 !///!c'4 !///!c'4 | x8 | x8 || x8 | x8 | x8 | x8 |] %78

